X: 39091
T: Sweeney's Buttermilk
R: reel
M: 4/4
K: Bminor
|:FB~B2 FB~B2|(3dcB BA BE~E2|FB~B2 ABce|afec Ba^ga|
~f2ea fecf|ec (3ccc BAFE|FB~B2 ABce|afec ABBA:|
|:FBdc BF~F2|EAcB AE~E2|FBdB cefb|afec d2dc|
Bcde fB~B2|afec ABce|~f2bf afea|afec ABBA:|

